icons/svg/subway/subway_novosibirsk.svg

<?xml version="1.0" encoding="UTF-8" standalone="no"?>
<svg
   xmlns:dc="http://purl.org/dc/elements/1.1/"
   xmlns:cc="http://creativecommons.org/ns#"
   xmlns:rdf="http://www.w3.org/1999/02/22-rdf-syntax-ns#"
   xmlns:svg="http://www.w3.org/2000/svg"
   xmlns="http://www.w3.org/2000/svg"
   xmlns:sodipodi="http://sodipodi.sourceforge.net/DTD/sodipodi-0.dtd"
   xmlns:inkscape="http://www.inkscape.org/namespaces/inkscape"
   width="16"
   height="16"
   id="svg2"
   version="1.1"
   inkscape:version="0.91 r"
   sodipodi:docname="subway_novosibirsk.svg">
  <defs
     id="defs13">
    <linearGradient
       gradientTransform="matrix(0.08596979,0,0,0.08596979,0.67480439,1.9432845)"
       x1="87.101639"
       y1="121.69753"
       x2="87.260849"
       y2="1.2385538"
       id="l1"
       gradientUnits="userSpaceOnUse">
      <stop
         style="stop-color:#e92203;stop-opacity:1"
         offset="0"
         id="stop5" />
      <stop
         style="stop-color:#ff0000;stop-opacity:0.64628822"
         offset="1"
         id="stop7" />
    </linearGradient>
    <linearGradient
       gradientTransform="matrix(0.08400469,0,0,0.08400469,0.8422306,2.0814238)"
       x1="87.101639"
       y1="121.69753"
       x2="87.260849"
       y2="1.2385538"
       id="l1-2"
       gradientUnits="userSpaceOnUse">
      <stop
         style="stop-color:#e92203;stop-opacity:1"
         offset="0"
         id="stop5-8" />
      <stop
         style="stop-color:#ff0000;stop-opacity:0.64628822"
         offset="1"
         id="stop7-4" />
    </linearGradient>
  </defs>
  <sodipodi:namedview
     pagecolor="#ffffff"
     bordercolor="#666666"
     borderopacity="1"
     objecttolerance="10"
     gridtolerance="10"
     guidetolerance="10"
     inkscape:pageopacity="0"
     inkscape:pageshadow="2"
     inkscape:window-width="1920"
     inkscape:window-height="1004"
     id="namedview11"
     showgrid="true"
     inkscape:zoom="45.254834"
     inkscape:cx="11.264883"
     inkscape:cy="7.5718994"
     inkscape:window-x="1680"
     inkscape:window-y="0"
     inkscape:window-maximized="1"
     inkscape:current-layer="svg2"
     showguides="false"
     inkscape:snap-global="false">
    <sodipodi:guide
       position="0,0"
       orientation="0,580"
       id="guide2989" />
    <sodipodi:guide
       position="580,0"
       orientation="-580,0"
       id="guide2991" />
    <sodipodi:guide
       position="580,580"
       orientation="0,-580"
       id="guide2993" />
    <sodipodi:guide
       position="0,580"
       orientation="580,0"
       id="guide2995" />
    <sodipodi:guide
       position="0,0"
       orientation="0,580"
       id="guide2997" />
    <sodipodi:guide
       position="580,0"
       orientation="-580,0"
       id="guide2999" />
    <sodipodi:guide
       position="580,580"
       orientation="0,-580"
       id="guide3001" />
    <sodipodi:guide
       position="0,580"
       orientation="580,0"
       id="guide3003" />
    <inkscape:grid
       type="xygrid"
       id="grid3013"
       empspacing="5"
       visible="true"
       enabled="true"
       snapvisiblegridlinesonly="true" />
  </sodipodi:namedview>
  <metadata
     id="metadata2975">image/svg+xmlen<rdf:RDF>
  <cc:Work
     rdf:about="">
    <dc:format>image/svg+xml</dc:format>
    <dc:type
       rdf:resource="http://purl.org/dc/dcmitype/StillImage" />
    <dc:title />
  </cc:Work>
</rdf:RDF>
</metadata>
  <path
     style="opacity:1;fill:#fefefe;fill-opacity:1;stroke:none"
     d="m 8.0000003,4.2199611 c -2.5597771,0 -4.4194404,0.8345444 -4.444736,0.8459443 -0.00139,5.411e-4 -0.00238,9.905e-4 -0.00376,0.00154 C 1.7141147,5.7831925 0.75592421,6.5529554 0.40894986,7.3534863 0.06171317,8.1546224 0.37232617,8.9316428 0.89820958,9.5627674 1.9499766,10.825016 3.8789301,11.656903 3.8789301,11.656903 c 1.1252083,0.568445 5.8932044,0.991383 8.2421439,0 0,0 1.928955,-0.831887 2.980721,-2.0941356 0.52588,-0.6311246 0.836494,-1.408145 0.489258,-2.2092811 C 15.244079,6.5529555 14.285886,5.7831925 12.4485,5.0674407 12.428895,5.0585959 10.563732,4.2199611 8.0000003,4.2199611 Z"
     id="path4572"
     inkscape:connector-curvature="0"
     sodipodi:nodetypes="sccssccsscs" />
  <polygon
     transform="matrix(0.02463708,0,0,0.0201008,0.66800561,4.3872658)"
     style="fill:#db2c2d"
     points="297.6,219.4 221.9,69 149.8,342.6 206.9,342.9 237.2,224.4 297.6,352.2 358.1,224.4 388.4,342.9 445.5,342.6 373.4,69 "
     id="polygon5" />
  <path
     inkscape:connector-curvature="0"
     style="fill:#0097f1"
     d="m 8.0000004,5.0586323 c 1.943866,0 3.6413596,0.7839312 3.6413596,0.7839312 4.163668,2.3357127 0.150286,5.4412865 0.150286,5.4412865 0,0 7.196492,-3.1739164 0.322747,-5.8493328 0,0 -1.734452,-0.7839312 -4.1143926,-0.7839312 -2.379942,0 -4.1143923,0.7839312 -4.1143923,0.7839312 -6.873745,2.6754164 0.3227456,5.8493328 0.3227456,5.8493328 0,0 -4.01338004,-3.1055738 0.1502861,-5.4412865 0,0 1.6999586,-0.7839312 3.6413606,-0.7839312 z"
     id="path7" />
</svg>

<svg width="16" height="16" viewBox="0 0 16 16" fill="none" xmlns="http://www.w3.org/2000/svg">
<path d="M8 4.21997C5.44022 4.21997 3.58056 5.05452 3.55526 5.06592C3.55387 5.06646 3.55288 5.06691 3.5515 5.06745C1.71412 5.7832 0.755925 6.55297 0.40895 7.3535C0.0617137 8.15463 0.372327 8.93165 0.89821 9.56278C1.94998 10.825 3.87893 11.6569 3.87893 11.6569C5.00414 12.2254 9.77214 12.6483 12.1211 11.6569C12.1211 11.6569 14.05 10.825 15.1018 9.56278C15.6277 8.93165 15.9383 8.15463 15.5911 7.3535C15.2441 6.55297 14.2859 5.7832 12.4485 5.06745C12.4289 5.05861 10.5637 4.21997 8 4.21997Z" fill="#FEFEFE"/>
<path d="M8 8.79739L6.13498 5.77423L4.35864 11.2738L5.76542 11.2798L6.51192 8.8979L8 11.4668L9.49055 8.8979L10.237 11.2798L11.6438 11.2738L9.86749 5.77423L8 8.79739Z" fill="#DB2C2D"/>
<path d="M8.00001 5.05862C9.94388 5.05862 11.6414 5.84255 11.6414 5.84255C15.805 8.17826 11.7917 11.2838 11.7917 11.2838C11.7917 11.2838 18.9882 8.10992 12.1144 5.4345C12.1144 5.4345 10.38 4.65057 8.00001 4.65057C5.62007 4.65057 3.88562 5.4345 3.88562 5.4345C-2.98812 8.10992 4.20837 11.2838 4.20837 11.2838C4.20837 11.2838 0.194986 8.17826 4.35865 5.84255C4.35865 5.84255 6.05861 5.05862 8.00001 5.05862V5.05862Z" fill="#0097F1"/>
</svg>
